images/logo-bank-Russia.svg

<svg width="97" height="28" viewBox="0 0 97 28" fill="none" xmlns="http://www.w3.org/2000/svg">
<path fill-rule="evenodd" clip-rule="evenodd" d="M7.24276 21C8.15022 22.4044 8.98037 23.2381 9.11447 23.4457C8.81385 23.4199 7.91583 22.9831 7.59399 22.8288C7.10889 22.5959 6.72198 22.2262 6.18488 22.0964C6.21344 21.7388 6.40492 21.6369 6.61038 21.441C6.8134 21.2473 7.00348 21.1311 7.24276 21ZM44.3501 22.6024H42.3972V19.3975C44.1716 19.3975 45.7335 19.0383 45.7335 21.0842C45.7335 21.9134 45.1511 22.6024 44.3501 22.6024ZM40.6882 27.8313H42.3972V24.2048C43.7321 24.2048 45.5967 24.4031 46.6077 23.5084C48.2558 22.0499 47.8016 17.7953 44.6756 17.7953H40.6881V27.8314L40.6882 27.8313ZM72.9944 27.9999C74.745 27.9999 75.855 27.5387 76.8327 26.0741C77.0093 25.8093 77.312 25.1362 77.3888 24.7951H75.5171C75.2858 25.2479 75.1166 25.5974 74.7179 25.9067C73.2073 27.0784 70.7159 26.086 70.7159 23.277C70.7159 21.9407 70.783 20.2271 72.1499 19.5343C73.7334 18.7317 75.2623 19.6733 75.5983 21.1686H77.47C77.0696 19.3871 75.6471 17.6264 73.5641 17.6264C71.8948 17.6264 71.0235 17.9606 69.9644 19.2092C68.5925 20.8266 68.5046 24.5664 69.9264 26.3725C70.6691 27.3157 71.6826 28 72.9944 28V27.9999ZM59.0791 22.771C59.0791 23.9636 59.4139 25.4361 60.1165 26.3343C61.2061 27.727 62.1258 27.9999 63.7989 27.9999C65.7723 27.9999 67.5155 26.0396 67.5421 24.7951C64.5276 24.7951 66.2823 24.8551 64.9882 25.8592C63.1513 27.2845 60.9506 25.6844 60.9506 23.4457C60.9506 22.1325 60.8969 20.307 62.3724 19.5217C63.8222 18.7502 65.4872 19.6294 65.8332 21.1686H67.7049C67.3055 19.3916 65.884 17.6264 63.7988 17.6264C62.2353 17.6264 61.0759 17.9727 60.194 19.2037C59.4745 20.2086 59.079 21.4034 59.079 22.771H59.0791ZM53.6269 4.97581C53.8304 5.88137 54.0529 6.65943 54.3287 7.53756L55.0917 10.1205H52.1621L53.6269 4.97581ZM49.4767 13.3253H51.267C51.308 12.8137 51.6306 12.2609 51.6738 11.7227H55.5799C55.586 11.7994 55.8788 13.3253 56.2308 13.3253H57.777C57.7667 12.8521 57.1989 11.3182 57.0342 10.8059L55.0608 4.58594C54.943 4.21975 54.7134 3.64702 54.6846 3.28917H52.5687L49.4764 13.3253H49.4767ZM69.0882 13.3253H70.7972V8.771L73.8687 12.166C74.1562 12.4606 74.7638 12.9292 74.8659 13.3254H77.0631L73.0569 8.62186C72.7705 8.32396 72.7019 8.31115 72.5061 7.92768C72.7571 7.53913 73.2087 7.16448 73.5452 6.81195L76.7376 3.28917H74.5405C74.4436 3.66503 73.9321 4.04596 73.6656 4.32211L70.7972 7.3373V3.28917H69.0882V13.3253ZM59.4859 13.3253H61.1948V8.93971H65.5079V13.3253H67.2168V3.28917H65.5079V7.3373H61.1948V3.28917H59.4859V13.3253ZM53.3827 26.3974C50.2094 26.3974 50.0686 20.8081 52.1629 19.5669C53.23 18.9345 54.519 19.2065 55.3041 20.2735C56.4679 21.855 56.2592 26.3974 53.3827 26.3974ZM48.9884 22.5179V23.1084C48.9884 25.6397 50.6541 27.9999 53.0572 27.9999C54.5647 27.9999 55.7391 27.7292 56.7085 26.3864C58.1576 24.379 58.0918 21.167 56.7093 19.2392C55.8192 17.9977 54.6529 17.6264 53.0572 17.6264C50.6519 17.6264 48.9884 20.0037 48.9884 22.518V22.5179ZM44.8382 11.7227H42.3155V8.93971C43.3901 8.93971 45.3104 8.7374 45.8727 9.30143C46.7066 10.1379 46.2618 11.7229 44.8383 11.7229L44.8382 11.7227ZM40.6066 13.3253H45.0822C49.1735 13.3253 49.0614 7.3373 45.245 7.3373H42.3154V4.97581H47.0352C47.4303 4.97581 47.2794 4.36223 47.2794 3.28917H40.6066V13.3253ZM90.7341 21.2529C90.7341 20.6127 90.683 19.7812 91.4709 19.4865C92.033 19.2764 94.5447 19.3975 95.291 19.3975V22.6024C94.0705 22.6024 92.1277 22.7926 91.3141 22.2541C91.0501 22.0793 90.734 21.661 90.734 21.2531L90.7341 21.2529ZM88.9438 20.8313C88.9438 21.8738 89.0849 22.3383 89.5917 23.0272C89.8948 23.4393 90.6008 23.9516 91.3036 23.9516C91.1896 24.3942 88.8925 27.3985 88.7811 27.8312H90.8155C91.1356 27.2041 92.988 24.6161 93.0939 24.2047H95.2911V27.8312H97V17.7951H92.1988C90.2844 17.7951 88.9438 18.8709 88.9438 20.8313ZM79.0158 27.8313C81.1189 27.8313 80.4804 28.1686 81.75 26.195L85.2004 20.9155V27.8313H86.9093V17.7952C84.7945 17.7952 85.4119 17.4661 84.1588 19.4144C83.7652 20.0264 83.3881 20.5704 83.0033 21.1686L80.7247 24.6265V17.7952H79.0158V27.8313ZM15.1359 5.29209L15.1654 10.9639C11.5472 10.9639 9.55035 10.0175 8.78854 9.95187C9.09476 8.58984 11.5261 6.62148 12.9963 5.96331C14.1449 5.44908 14.3975 5.56256 15.1359 5.29209ZM15.1359 12.7124V14.2555L7.4052 14.2529C7.51061 12.9405 7.74663 12.4853 7.97484 11.4699C9.32355 11.7955 9.36389 12.0088 11.288 12.3373C11.8625 12.4354 12.4543 12.5155 13.1353 12.6155C13.6701 12.6939 14.5928 12.7709 15.1359 12.7124ZM16.682 14.2581V4.30132C16.902 4.36223 17.1843 4.66981 17.6841 4.94947C18.5326 5.42406 20.6597 5.82445 21.6928 6.02374C25.8717 6.82984 27.9584 7.77649 30.1584 11.1658C30.5672 11.7957 30.9887 12.7113 31.2157 13.5278C31.4861 14.5012 31.411 15.6607 31.411 16.8676H17.9027V24.1206C18.3483 24.0129 18.8403 24.0594 19.286 23.9519V18.3013H32.9571C32.9571 13.5131 33.1249 11.529 29.6818 7.94895C28.7091 6.93752 28.1612 6.6459 27.072 6.01504C26.0345 5.41403 25.1138 5.03406 23.8901 4.75852C23.2383 4.61168 22.7274 4.48865 22.0638 4.37432C19.4146 3.91785 16.993 3.17339 15.5759 0.724763C15.4032 0.426253 15.3735 0.180435 15.1359 0V3.57777C12.1097 3.6753 8.47066 4.76794 5.88414 6.26702C3.4225 7.6937 1.07374 9.92781 0.277415 12.8537C0.130603 13.3934 0.040347 13.923 0 14.4416V15.6975C0.323826 19.8191 3.8009 23.087 7.45161 24.6626C8.70143 25.2021 9.6265 25.536 11.0505 25.9086C13.4703 26.5415 16.9138 26.7789 19.8222 26.3628C22.9757 25.9113 25.4464 25.0439 27.8052 23.5881C28.0937 23.41 28.277 23.2771 28.5467 23.0915C29.6382 22.3406 29.6342 22.2562 30.494 21.3987C30.7525 21.1408 30.9027 21.1095 31.1333 20.7962C31.6526 20.0911 32.1863 19.8762 32.2248 19.3974C28.6443 19.3974 25.0637 19.4001 21.4832 19.3974C21.1677 19.3971 20.4416 19.2807 20.3 19.5206C20.2254 19.6472 20.2254 20.7501 20.3 20.8766C20.4499 21.1305 22.4979 20.9999 22.8666 20.9999C24.684 20.9999 26.5014 20.9999 28.3187 20.9999C28.0348 21.4393 26.6502 22.2876 26.0954 22.5752C23.2991 24.0256 20.2128 24.7951 16.7635 24.7951V15.8554H30.4346V14.2529L16.6821 14.258L16.682 14.2581ZM8.78854 20.241C10.0316 19.5593 13.5493 19.0603 15.1359 19.0603V24.7108C13.1361 24.5385 11.3044 23.2156 9.94799 21.8225C9.56878 21.433 9.03564 20.7249 8.78854 20.241ZM1.7088 15.8555H5.69628C5.91329 16.8206 5.9913 18.3816 6.50998 19.3976C5.91574 19.8102 5.18285 20.2525 4.80106 21C3.4309 20.0491 1.95112 17.8136 1.7088 15.8555ZM7.40508 15.8555H15.1357V17.2892C13.3988 17.2892 11.2825 17.6844 9.66626 18.1146C9.35736 18.1968 9.15633 18.2588 8.84008 18.3549C8.52349 18.4511 8.32583 18.5735 8.056 18.6385C7.53207 17.5066 7.49394 16.0617 7.40508 15.8555ZM5.69616 14.2531H1.70869C1.78413 13.3135 2.36823 11.9495 2.80015 11.3361C3.1536 10.8342 4.18222 9.42591 4.71967 9.27726C4.84503 9.76418 5.99632 10.4741 6.42859 10.711L5.98827 12.3631C5.84694 12.9941 5.82828 13.665 5.69616 14.2531ZM7.24229 9.1929C6.72839 8.91107 6.33962 8.67286 6.02174 8.18087C6.61283 7.77081 8.35685 6.82609 9.03261 6.66282C8.87355 6.90888 8.71753 7.00725 8.52465 7.23276C8.20071 7.61152 7.3343 8.78393 7.24229 9.1929Z" fill="black"/>
</svg>

<svg width="97" height="28" fill="none" xmlns="http://www.w3.org/2000/svg"><path fill-rule="evenodd" clip-rule="evenodd" d="M7.243 21c.907 1.404 1.737 2.238 1.871 2.446-.3-.026-1.198-.463-1.52-.617-.485-.233-.872-.603-1.41-.733.03-.357.22-.46.426-.655.203-.194.393-.31.633-.441zm37.107 1.602h-1.953v-3.204c1.775 0 3.337-.36 3.337 1.686 0 .83-.583 1.518-1.384 1.518zm-3.662 5.23h1.71v-3.627c1.334 0 3.199.198 4.21-.697 1.648-1.458 1.194-5.713-1.932-5.713h-3.988v10.036zM72.994 28c1.751 0 2.861-.461 3.839-1.926.176-.265.479-.938.556-1.279h-1.872c-.231.453-.4.802-.8 1.112-1.51 1.171-4.001.179-4.001-2.63 0-1.336.067-3.05 1.434-3.743 1.583-.802 3.112.14 3.448 1.635h1.872c-.4-1.782-1.823-3.543-3.906-3.543-1.67 0-2.54.335-3.6 1.583-1.371 1.618-1.46 5.357-.038 7.163.743.944 1.757 1.628 3.068 1.628zM59.08 22.77c0 1.193.335 2.665 1.038 3.563C61.207 27.727 62.126 28 63.799 28c1.973 0 3.717-1.96 3.743-3.205-3.014 0-1.26.06-2.554 1.064-1.837 1.425-4.037-.175-4.037-2.413 0-1.314-.054-3.139 1.421-3.924 1.45-.772 3.115.107 3.461 1.647h1.872c-.4-1.777-1.821-3.543-3.906-3.543-1.564 0-2.723.347-3.605 1.578-.72 1.005-1.115 2.2-1.115 3.567zM53.627 4.976c.203.905.426 1.683.702 2.562l.763 2.582h-2.93l1.465-5.144zm-4.15 8.35h1.79c.041-.512.364-1.065.407-1.603h3.906c.006.076.299 1.602.65 1.602h1.547c-.01-.473-.578-2.007-.743-2.52l-1.973-6.22c-.118-.365-.348-.938-.376-1.296h-2.116l-3.093 10.036zm19.611 0h1.71V8.77l3.07 3.395c.288.295.896.763.998 1.16h2.197l-4.006-4.704c-.287-.298-.355-.31-.55-.694.25-.389.702-.764 1.038-1.116l3.193-3.523H74.54c-.096.376-.608.757-.874 1.033l-2.869 3.015V3.29h-1.709v10.036zm-9.602 0h1.709V8.94h4.313v4.385h1.709V3.29h-1.71v4.048h-4.312V3.29h-1.71v10.036zm-6.103 13.071c-3.174 0-3.314-5.589-1.22-6.83 1.067-.633 2.356-.36 3.141.706 1.164 1.582.955 6.124-1.921 6.124zm-4.395-3.88v.591c0 2.532 1.666 4.892 4.07 4.892 1.507 0 2.681-.27 3.65-1.614 1.45-2.007 1.384-5.219.001-7.147-.89-1.241-2.056-1.613-3.652-1.613-2.405 0-4.069 2.378-4.069 4.892zm-4.15-10.794h-2.523V8.94c1.075 0 2.995-.203 3.558.361.834.837.389 2.422-1.035 2.422zm-4.231 1.602h4.475c4.091 0 3.98-5.988.163-5.988h-2.93V4.976h4.72c.395 0 .244-.614.244-1.687h-6.672v10.036zm50.127 7.928c0-.64-.051-1.472.737-1.767.562-.21 3.074-.088 3.82-.088v3.204c-1.22 0-3.163.19-3.977-.348-.264-.175-.58-.593-.58-1v-.001zm-1.79-.422c0 1.043.14 1.507.648 2.196.303.412 1.009.925 1.712.925-.114.442-2.412 3.446-2.523 3.88h2.034c.32-.628 2.173-3.216 2.279-3.627h2.197v3.626H97V17.795h-4.801c-1.915 0-3.255 1.076-3.255 3.036zm-9.928 7c2.103 0 1.464.338 2.734-1.636l3.45-5.28v6.916h1.71V17.795c-2.115 0-1.498-.329-2.751 1.62-.394.611-.77 1.155-1.156 1.754l-2.278 3.457v-6.83h-1.71V27.83zM15.136 5.292l.03 5.672c-3.619 0-5.616-.947-6.377-1.012.306-1.362 2.737-3.33 4.207-3.989 1.149-.514 1.402-.4 2.14-.67zm0 7.42v1.543l-7.73-.002c.105-1.313.34-1.768.569-2.783 1.349.325 1.389.539 3.313.867.575.098 1.166.178 1.847.279.535.078 1.458.155 2 .096zm1.546 1.546V4.301c.22.061.502.369 1.002.648.849.475 2.976.875 4.009 1.075 4.179.806 6.265 1.752 8.465 5.142.41.63.83 1.545 1.058 2.362.27.973.195 2.133.195 3.34H17.903v7.253c.445-.108.937-.062 1.383-.17v-5.65h13.671c0-4.788.168-6.772-3.275-10.352-.973-1.011-1.52-1.303-2.61-1.934-1.037-.601-1.958-.98-3.182-1.256-.652-.147-1.163-.27-1.826-.385-2.65-.456-5.071-1.2-6.488-3.65-.173-.298-.203-.544-.44-.724v3.578c-3.026.097-6.665 1.19-9.252 2.689-2.462 1.427-4.81 3.66-5.607 6.587A8.57 8.57 0 000 14.442v1.255c.324 4.122 3.8 7.39 7.452 8.966 1.25.54 2.175.873 3.598 1.246 2.42.633 5.864.87 8.772.454 3.154-.452 5.624-1.32 7.983-2.775.289-.178.472-.31.742-.497 1.091-.75 1.087-.835 1.947-1.692.259-.258.409-.29.64-.603.519-.705 1.052-.92 1.09-1.399-3.58 0-7.16.003-10.74 0-.316 0-1.042-.116-1.184.124-.075.126-.075 1.23 0 1.356.15.254 2.198.123 2.567.123h5.452c-.284.44-1.669 1.288-2.224 1.575-2.796 1.45-5.882 2.22-9.331 2.22v-8.94h13.67v-1.602l-13.752.005zm-7.893 5.983c1.243-.682 4.76-1.18 6.347-1.18v5.65c-2-.172-3.832-1.495-5.188-2.888-.38-.39-.912-1.098-1.16-1.582zm-7.08-4.386h3.987c.217.966.295 2.527.814 3.543-.594.412-1.327.855-1.709 1.602-1.37-.95-2.85-3.186-3.092-5.145zm5.696 0h7.73v1.434c-1.736 0-3.852.395-5.469.826-.309.082-.51.144-.826.24-.317.096-.514.218-.784.284-.524-1.132-.562-2.577-.65-2.784zm-1.709-1.602H1.71c.075-.94.66-2.303 1.091-2.917.354-.502 1.382-1.91 1.92-2.059.125.487 1.276 1.197 1.709 1.434l-.44 1.652c-.142.631-.16 1.302-.293 1.89zm1.546-5.06c-.514-.282-.902-.52-1.22-1.012.59-.41 2.335-1.355 3.01-1.518-.158.246-.314.344-.507.57-.324.379-1.19 1.55-1.283 1.96z" fill="#000"/></svg>
